img/lifestyle.svg

<svg width="160" height="164" viewBox="0 0 160 164" fill="none" xmlns="http://www.w3.org/2000/svg">
<rect width="160" height="164" rx="45" fill="#093F68"/>
<path d="M100.285 128.871L85.4121 119.105V90.8252C85.4121 89.8341 84.6144 89.0307 83.6303 89.0307C82.6462 89.0307 81.8485 89.8341 81.8485 90.8252V119.129L66.9758 128.895L100.285 128.871Z" fill="#3EE9E5"/>
<path fill-rule="evenodd" clip-rule="evenodd" d="M66.9515 129.481H100.279C100.547 129.48 100.783 129.302 100.859 129.043C100.934 128.783 100.832 128.505 100.606 128.358L85.9939 118.799V90.8252C85.9939 89.497 84.9248 88.4203 83.6061 88.4203C82.2873 88.4203 81.2182 89.497 81.2182 90.8252V118.799L66.6242 128.358C66.3988 128.505 66.296 128.783 66.3715 129.043C66.4471 129.302 66.6831 129.48 66.9515 129.481ZM98.2424 128.26H69.0242L82.1818 119.642C82.3529 119.528 82.4555 119.335 82.4545 119.129V90.8252C82.4545 90.1712 82.9809 89.641 83.6303 89.641C84.2797 89.641 84.8061 90.1712 84.8061 90.8252V119.111C84.8051 119.317 84.9077 119.51 85.0788 119.623L98.2424 128.26Z" fill="#093F68"/>
<ellipse cx="51.6667" cy="55.0442" rx="11.0242" ry="11.103" fill="#080C20"/>
<path fill-rule="evenodd" clip-rule="evenodd" d="M40.9217 59.5267C42.7218 63.9037 46.9626 66.7575 51.6667 66.7575C58.0871 66.7508 63.2903 61.5105 63.297 55.0442C63.297 50.3065 60.4633 46.0354 56.1174 44.2224C51.7714 42.4094 46.769 43.4116 43.4428 46.7616C40.1166 50.1116 39.1215 55.1497 40.9217 59.5267ZM42.0409 51.0363C43.6531 47.1148 47.4524 44.5577 51.6667 44.5577V44.5455C57.4201 44.5522 62.0815 49.2497 62.0848 55.0442C62.0873 59.2886 59.5505 63.1164 55.6577 64.7424C51.7649 66.3684 47.2829 65.4722 44.302 62.4718C41.3212 59.4714 40.4288 54.9579 42.0409 51.0363Z" fill="#093F68"/>
<path d="M83.6303 94.1213L47.903 52.2852H119.358L83.6303 94.1213Z" fill="#080C20"/>
<path fill-rule="evenodd" clip-rule="evenodd" d="M83.1758 94.5181C83.2909 94.6536 83.4592 94.7317 83.6364 94.7317C83.8114 94.7299 83.9771 94.652 84.0909 94.5181L119.818 52.682C119.973 52.5009 120.008 52.2457 119.909 52.0288C119.81 51.8125 119.594 51.6742 119.358 51.6748H47.9091C47.6724 51.6742 47.457 51.8125 47.3576 52.0288C47.2584 52.2457 47.294 52.5009 47.4485 52.682L83.1758 94.5181ZM83.6303 93.1813L49.2242 52.8956H118.036L83.6303 93.1813Z" fill="#093F68"/>
<path d="M56.503 62.3505L83.6303 94.1213L110.758 62.3505H56.503Z" fill="#3EE9E5"/>
<path fill-rule="evenodd" clip-rule="evenodd" d="M83.1758 94.5181C83.2909 94.6536 83.4592 94.7317 83.6364 94.7317C83.8135 94.7317 83.9818 94.6536 84.097 94.5181L111.224 62.7473C111.379 62.5662 111.414 62.311 111.315 62.0942C111.216 61.8778 111 61.7395 110.764 61.7401H56.5091C56.2724 61.7395 56.057 61.8778 55.9576 62.0942C55.8584 62.311 55.894 62.5662 56.0485 62.7473L83.1758 94.5181ZM83.6364 93.1813L57.8303 62.9914L109.448 62.9609L83.6364 93.1813Z" fill="#093F68"/>
<path d="M84.6485 89.5251C84.5344 89.5236 84.4231 89.4898 84.3273 89.4274C84.1914 89.3408 84.0953 89.2034 84.0601 89.0454C84.0249 88.8875 84.0534 88.7219 84.1394 88.5851L116.806 36.3052C116.985 36.0187 117.361 35.9326 117.645 36.1129C117.93 36.2933 118.015 36.6718 117.836 36.9583L85.1636 89.2382C85.0527 89.417 84.8579 89.5255 84.6485 89.5251Z" fill="#093F68"/>
<ellipse cx="113.085" cy="43.9473" rx="6.27273" ry="6.31753" fill="#080C20"/>
<path fill-rule="evenodd" clip-rule="evenodd" d="M106.194 43.9473C106.197 47.7768 109.282 50.8786 113.085 50.8752C116.886 50.8685 119.964 47.7632 119.964 43.9351C119.96 40.1055 116.875 37.0038 113.073 37.0071C109.27 37.0105 106.191 40.1177 106.194 43.9473ZM107.838 41.7595C108.718 39.6233 110.789 38.2316 113.085 38.234C116.209 38.2407 118.742 40.7883 118.752 43.9351C118.756 46.2475 117.377 48.3349 115.257 49.2227C113.137 50.1105 110.694 49.6236 109.07 47.9893C107.445 46.355 106.959 43.8957 107.838 41.7595Z" fill="#093F68"/>
<path d="M109.624 43.6054C109.564 43.6147 109.503 43.6147 109.442 43.6054C109.123 43.5059 108.944 43.1644 109.042 42.8425C109.904 40.2355 112.663 38.7856 115.279 39.5647C115.614 39.6422 115.822 39.9783 115.745 40.3154C115.668 40.6526 115.335 40.863 115 40.7854C111.297 39.9004 110.242 43.0988 110.2 43.227C110.105 43.4612 109.876 43.6117 109.624 43.6054Z" fill="#093F68"/>
<path fill-rule="evenodd" clip-rule="evenodd" d="M80.4182 71.1218C80.5003 71.1581 80.5891 71.1768 80.6788 71.1768C80.7427 71.1776 80.8063 71.1673 80.8667 71.1462C81.0182 71.0927 81.1425 70.9807 81.2121 70.8349L86.2182 60.2935C86.3612 59.9901 86.2339 59.6273 85.9333 59.4817L75.4727 54.4277C75.1714 54.2836 74.8112 54.4118 74.6667 54.7145L69.6485 65.2499C69.5862 65.4003 69.5862 65.5695 69.6485 65.7199C69.6994 65.8724 69.8115 65.9964 69.9576 66.0617L80.4182 71.1218ZM80.3939 69.7545L71.0242 65.2255L75.5212 55.7888L84.8909 60.3179L80.3939 69.7545Z" fill="#093F68"/>
<path fill-rule="evenodd" clip-rule="evenodd" d="M78.4 84.117C78.4919 84.3494 78.7153 84.5018 78.9636 84.5016C79.0485 84.505 79.1332 84.4905 79.2121 84.4588L87.2606 81.2543C87.5712 81.1322 87.7256 80.7804 87.6061 80.4669L84.4242 72.3548C84.3649 72.2042 84.2485 72.0835 84.1007 72.0193C83.9529 71.9552 83.7858 71.9529 83.6364 72.013L75.5636 75.2114C75.4141 75.2712 75.2942 75.3884 75.2306 75.5373C75.1669 75.6861 75.1646 75.8544 75.2242 76.0049L78.4 84.117ZM79.303 83.0977L76.5697 76.127L83.497 73.3742L86.2303 80.3448L79.303 83.0977Z" fill="#093F68"/>
</svg>

<svg xmlns="http://www.w3.org/2000/svg" fill="none" viewBox="0 0 160 164"><rect width="160" height="164" fill="#093F68" rx="45"/><path fill="#3EE9E5" d="m100.285 128.871-14.873-9.766v-28.28c0-.99-.798-1.794-1.782-1.794s-1.781.803-1.781 1.794v28.304l-14.873 9.766 33.309-.024Z"/><path fill="#093F68" fill-rule="evenodd" d="M66.951 129.481h33.328a.608.608 0 0 0 .58-.438.613.613 0 0 0-.253-.685l-14.612-9.559V90.825a2.396 2.396 0 0 0-2.388-2.405 2.396 2.396 0 0 0-2.388 2.405V118.8l-14.594 9.559a.613.613 0 0 0-.252.685.607.607 0 0 0 .58.438Zm31.291-1.221H69.024l13.158-8.618a.613.613 0 0 0 .272-.513V90.825a1.18 1.18 0 0 1 1.176-1.184c.65 0 1.176.53 1.176 1.184v28.286a.61.61 0 0 0 .273.512l13.163 8.637Z" clip-rule="evenodd"/><ellipse cx="51.667" cy="55.044" fill="#080C20" rx="11.024" ry="11.103"/><path fill="#093F68" fill-rule="evenodd" d="M40.922 59.527c1.8 4.377 6.04 7.23 10.745 7.23 6.42-.006 11.623-5.247 11.63-11.713 0-4.737-2.834-9.009-7.18-10.822a11.57 11.57 0 0 0-12.674 2.54 11.774 11.774 0 0 0-2.521 12.765Zm1.119-8.49c1.612-3.922 5.411-6.48 9.626-6.48v-.012c5.753.007 10.414 4.705 10.418 10.5.002 4.244-2.535 8.071-6.427 9.697a10.364 10.364 0 0 1-11.356-2.27c-2.98-3-3.873-7.514-2.261-11.436Z" clip-rule="evenodd"/><path fill="#080C20" d="M83.63 94.121 47.903 52.285h71.455L83.63 94.121Z"/><path fill="#093F68" fill-rule="evenodd" d="M83.176 94.518a.604.604 0 0 0 .46.214.605.605 0 0 0 .455-.214l35.727-41.836a.613.613 0 0 0 .091-.653.605.605 0 0 0-.551-.354H47.909a.606.606 0 0 0-.551.354.614.614 0 0 0 .09.653l35.728 41.836Zm.454-1.337L49.224 52.896h68.812L83.63 93.18Z" clip-rule="evenodd"/><path fill="#3EE9E5" d="M56.503 62.35 83.63 94.121l27.128-31.77H56.503Z"/><path fill="#093F68" fill-rule="evenodd" d="M83.176 94.518a.604.604 0 0 0 .921 0l27.127-31.77a.613.613 0 0 0 .091-.654.605.605 0 0 0-.551-.354H56.509a.606.606 0 0 0-.551.354.614.614 0 0 0 .09.653l27.128 31.771Zm.46-1.337L57.83 62.991l51.618-.03-25.812 30.22Z" clip-rule="evenodd"/><path fill="#093F68" d="M84.648 89.525a.61.61 0 0 1-.51-.94l32.668-52.28a.606.606 0 0 1 .839-.192c.285.18.37.559.191.845l-32.672 52.28a.605.605 0 0 1-.516.287Z"/><ellipse cx="113.085" cy="43.947" fill="#080C20" rx="6.273" ry="6.318"/><path fill="#093F68" fill-rule="evenodd" d="M106.194 43.947c.003 3.83 3.088 6.932 6.891 6.928 3.801-.007 6.879-3.112 6.879-6.94-.004-3.83-3.089-6.931-6.891-6.928-3.803.004-6.882 3.11-6.879 6.94Zm1.644-2.188a5.674 5.674 0 0 1 5.247-3.525c3.124.007 5.657 2.554 5.667 5.701a5.716 5.716 0 0 1-3.495 5.288c-2.12.888-4.563.4-6.187-1.234a5.743 5.743 0 0 1-1.232-6.23Z" clip-rule="evenodd"/><path fill="#093F68" d="M109.624 43.605a.597.597 0 0 1-.182 0 .612.612 0 0 1-.4-.762c.862-2.608 3.621-4.057 6.237-3.278a.626.626 0 0 1 .466.75.621.621 0 0 1-.745.47c-3.703-.885-4.758 2.314-4.8 2.442a.605.605 0 0 1-.576.378Z"/><path fill="#093F68" fill-rule="evenodd" d="M80.418 71.122a.645.645 0 0 0 .449.024.607.607 0 0 0 .345-.311l5.006-10.541a.612.612 0 0 0-.285-.812l-10.46-5.054a.604.604 0 0 0-.806.287L69.648 65.25a.614.614 0 0 0 0 .47c.051.152.163.276.31.342l10.46 5.06Zm-.024-1.368-9.37-4.529 4.497-9.436 9.37 4.529-4.497 9.436ZM78.4 84.117a.606.606 0 0 0 .564.385.602.602 0 0 0 .248-.043l8.049-3.205a.612.612 0 0 0 .345-.787l-3.182-8.112a.609.609 0 0 0-.788-.342l-8.072 3.198a.608.608 0 0 0-.34.794l3.176 8.112Zm.903-1.02-2.733-6.97 6.927-2.753 2.733 6.97-6.927 2.754Z" clip-rule="evenodd"/></svg>
